X: 2544
T: Ballyhoura Mountains, The
R: polka
M: 2/4
K: Amajor
c>c BA|FA AB|cB/c/ BA|B/c/d e>f|
ec BA|FA A>B|c>c ec|BA A2:|
|:a>f ec|ec BA|a>f ec|B/c/d e2|
a>f ec|ec BA|B/c/c ec|BA A2:|

